X:1
T:[ID 7-9]
T:[ID 7-9]
T:Bezeichnung standardisiert: Menuet [mit Trio] In dieser Quelle auch als: Menuetto Menuet Con Trio
T:Urheber unbekannt Datum in der hier transkribierten schriftlichen Quelle: 1776 - 1791
C:Urheber unbekannt
C:Datum in der hier transkribierten schriftlichen Quelle: 1776 - 1791
L:1/8
M:3/4
K:G
V:1 treble 
V:1
 G2 G2 GB | A2 A2 Ac | B2 B2 (3gfe | d2 c2 B2 | ggeecc | ddAAFF | G2 E2 A2 | D6 :: D2 d2 de | %9
 dc c4 | ABcedc | cB B4 | G2 ggee | ccAAFF | GD B,2 A,2 | G,6 :|[M:3/4]"^Trio" !fermata!d3 c B2 | %17
 (3G,A,B, (3CB,A, G,2 | e2 e2 f2 | g2 D/C/B,/A,/ G,2 | b2 b2 b2 | a3 g f2 | (3gfe d2 ^c2 | d6 :: %24
 a3 g f2 | (3DEF (3GFE D2 | b3 a g2 | (3G,A,B, (3CB,A, G,2 | D2 a2 g2 | gffeef | gdBGAF | G6 :| %32

